frontend/public/svg/health/flask.svg

<svg width="161" height="156" viewBox="0 0 161 156" fill="none" xmlns="http://www.w3.org/2000/svg">
<g clip-path="url(#clip0)">
<path d="M73.4329 154.374C66.2493 154.374 59.0646 154.305 51.8817 154.39C41.6678 154.512 31.4551 154.802 21.2412 154.902C17.8939 154.935 14.54 154.606 11.1901 154.429C10.7414 154.402 10.2959 154.336 9.8588 154.231C1.7727 152.352 -0.874954 147.011 2.88455 139.643C4.69088 136.157 6.75298 132.809 9.05407 129.627C22.1716 111.262 35.7729 93.2664 50.5668 76.2016C51.1575 75.5229 51.6743 74.7813 52.2913 74.1315C53.064 73.3432 53.6545 72.3955 54.0215 71.3545C54.3886 70.3136 54.5232 69.2044 54.4157 68.1063C54.1998 63.0706 54.623 58.0109 54.6946 52.9604C54.8764 40.0509 54.9861 27.1401 55.181 14.2299C55.225 11.3177 55.5177 8.40872 55.6602 5.49722C55.777 3.11275 57.1435 1.81519 59.3238 1.29144C60.617 0.924634 61.9489 0.712339 63.292 0.658813C73.3995 0.697537 83.5071 0.719127 93.6068 0.948846C99.2802 1.08011 100.673 2.44724 101.134 8.16266C101.72 15.4329 102.149 22.7202 102.48 30.0075C103.041 42.3414 103.516 54.6791 103.905 67.0201C103.971 69.1033 105.12 70.2952 106.322 71.6092C113.443 79.398 120.72 87.0508 127.653 95.0011C138.059 106.93 148.071 119.193 156.991 132.294C158.357 134.335 159.385 136.584 160.035 138.953C161.454 144.085 159.695 148.19 154.772 150.275C151.425 151.693 147.708 152.362 144.091 152.989C134.195 154.705 124.195 154.463 114.197 154.373C100.611 154.25 87.0211 154.342 73.4336 154.342L73.4329 154.374ZM11.3849 143.971C14.4432 145.384 17.8094 146 21.1697 145.76C30.6984 145.407 40.2427 145.494 49.7813 145.391C57.5261 145.307 65.267 145.111 73.0089 145.128C78.7309 145.141 84.4509 145.504 90.1728 145.555C99.714 145.642 109.26 145.452 118.798 145.664C127.998 145.895 137.201 145.414 146.326 144.226C153.294 143.302 154.181 141.816 150.116 136.14C144.438 128.212 138.406 120.539 132.566 112.724C130.984 110.607 129.466 108.616 126.326 109.266C125.633 109.41 124.808 108.959 124.052 108.75C120.484 107.766 116.888 106.866 113.361 105.753C106.964 103.736 100.746 104.253 94.6149 106.755C93.1408 107.293 91.6955 107.911 90.2877 108.605C83.0181 112.543 75.2313 112.867 67.3513 111.61C62.2767 110.745 57.2554 109.591 52.3121 108.153C44.1781 105.88 35.3949 108.714 30.5491 115.498C25.9856 121.887 21.3867 128.252 16.9407 134.721C14.9809 137.572 13.3592 140.657 11.3849 143.971ZM60.9214 7.80161C61.1741 13.6666 61.4071 19.1452 61.6479 24.6236C62.2235 37.7445 62.6001 50.8771 63.4724 63.9795C63.7033 66.772 63.378 69.5824 62.5155 72.2478C61.6529 74.9139 60.2704 77.3823 58.4476 79.5102C57.6672 80.4665 56.938 81.4634 56.1674 82.4296C51.6952 88.0524 47.2233 93.6746 42.752 99.2968C42.2545 99.9249 41.887 100.655 41.2726 101.637C45.8259 100.734 50.5231 100.855 55.0234 101.994C59.3432 103.19 63.7334 104.116 68.1678 104.766C74.3328 105.596 80.4735 105.563 86.2171 102.436C88.5208 101.274 90.8981 100.263 93.3331 99.4104C99.7797 96.9301 106.394 96.2396 113.155 97.8732C115.928 98.544 118.668 99.369 121.418 100.124C117.607 95.0818 113.548 90.4474 109.412 85.8819C105.645 81.7247 101.948 77.4808 97.9091 73.6025C96.133 71.896 95.1183 70.1889 95.0356 67.8359C94.8223 61.7775 94.5762 55.7202 94.4285 49.6609C94.145 37.7622 93.9369 25.8614 93.6632 13.962C93.6173 11.968 93.3941 9.97809 93.2399 7.79905L60.9214 7.80161Z" fill="black"/>
</g>
<defs>
<clipPath id="clip0">
<rect width="160.146" height="154.896" fill="white" transform="translate(0.570312 0.292725)"/>
</clipPath>
</defs>
</svg>

<svg xmlns="http://www.w3.org/2000/svg" width="161" height="156" fill="none" viewBox="0 0 161 156"><g clip-path="url(#a)"><path fill="#000" d="M73.433 154.374c-7.184 0-14.368-.069-21.551.016-10.214.122-20.427.412-30.64.512-3.348.033-6.702-.296-10.052-.473a7.7 7.7 0 0 1-1.331-.198c-8.086-1.879-10.734-7.22-6.974-14.588a79.6 79.6 0 0 1 6.17-10.016c13.117-18.365 26.718-36.36 41.512-53.425.59-.68 1.107-1.42 1.724-2.07a7.56 7.56 0 0 0 2.125-6.026c-.216-5.035.207-10.095.279-15.146.181-12.91.291-25.82.486-38.73.044-2.912.337-5.821.48-8.733.116-2.384 1.483-3.682 3.663-4.206A17 17 0 0 1 63.292.66C73.4.699 83.507.72 93.607.95c5.673.131 7.066 1.498 7.527 7.214.586 7.27 1.015 14.557 1.346 21.844a2657 2657 0 0 1 1.425 37.013c.066 2.083 1.215 3.275 2.417 4.59 7.121 7.788 14.398 15.44 21.331 23.391 10.406 11.929 20.418 24.192 29.338 37.293a22.8 22.8 0 0 1 3.044 6.659c1.419 5.132-.34 9.237-5.263 11.322-3.347 1.418-7.064 2.087-10.681 2.714-9.896 1.716-19.896 1.474-29.894 1.384-13.586-.123-27.176-.031-40.763-.031zm-62.048-10.403a19.94 19.94 0 0 0 9.785 1.789c9.528-.353 19.073-.266 28.611-.369 7.745-.084 15.486-.28 23.228-.263 5.722.013 11.442.376 17.164.427 9.541.087 19.087-.103 28.625.109 9.2.231 18.403-.25 27.528-1.438 6.968-.924 7.855-2.41 3.79-8.086-5.678-7.928-11.71-15.601-17.55-23.416-1.582-2.117-3.1-4.108-6.24-3.458-.693.144-1.518-.307-2.274-.516-3.568-.984-7.164-1.884-10.691-2.997-6.397-2.017-12.615-1.5-18.746 1.002a44 44 0 0 0-4.327 1.85c-7.27 3.938-15.057 4.262-22.937 3.005a135 135 0 0 1-15.039-3.457c-8.134-2.273-16.917.561-21.763 7.345-4.563 6.389-9.162 12.754-13.608 19.223-1.96 2.851-3.582 5.936-5.556 9.25M60.92 7.801c.253 5.866.486 11.344.727 16.823.575 13.12.952 26.253 1.824 39.356a21.2 21.2 0 0 1-5.024 15.53c-.78.956-1.51 1.953-2.28 2.92L42.751 99.297c-.498.628-.865 1.358-1.48 2.34a31.26 31.26 0 0 1 13.751.357 108 108 0 0 0 13.145 2.772c6.165.83 12.305.797 18.05-2.33a59 59 0 0 1 7.115-3.026c6.447-2.48 13.061-3.17 19.822-1.537 2.773.671 5.513 1.496 8.263 2.251-3.811-5.042-7.87-9.677-12.006-14.242-3.767-4.157-7.464-8.401-11.503-12.28-1.776-1.706-2.79-3.413-2.873-5.766-.214-6.058-.46-12.116-.608-18.175-.283-11.899-.491-23.8-.765-35.699-.046-1.994-.269-3.984-.423-6.163z"/></g><defs><clipPath id="a"><path fill="#fff" d="M.57.293h160.146v154.896H.57z"/></clipPath></defs></svg>
